!!!OTL: Mengjiangnu
!!!ARE: Asia, China,ˇbei Ningxia, Yinchuan
!! I, 205
!!!SCT: C1434
!!!YEM: Copyright 1995, estate of Helmut Schaffrath.
**kern
*ICvox
*Ivox
!! Mixed meters:  2/4; 3/4
*M3/4
*k[f#c#]
*D:
{8dd
16dd
16ee
8ff#
8ff#
=1
16ff#
16ee
8dd
2ee}
=2
*M2/4
{8dd
16dd
16ee
8ff#
8ff#
=3
*M3/4
16ff#
16ee
8dd
2ee}
=4
*M2/4
{8dd
16dd
16ee
8ff#
8ff#
=5
8.ee
16ff#
8dd
8ee
=6
8ff#
4.ee}
=7
{16ee
16ff#
16ee
16dd
8b
8a
=8
4b
8ee
8dd
=9
8b
4.a}
==
!!!AGN: Xiaodiao, MengjiangnÅ, Song hanyi
!!!ONB: ESAC (Essen Associative Code) Database: HUANG
!!!AMT: irregular
!!!AIN: vox
!!!EED: Helmut Schaffrath
!!!EEV: 1.0
*-
!!!OTL: Hebian yangliu paiduipai
!!!ARE: Asia, China,ˇYunnan, Songming
!! II, 86
!!!SCT: C1497
!!!YEM: Copyright 1995, estate of Helmut Schaffrath.
**kern
*ICvox
*Ivox
*M4/4
*k[b-e-]
*B-:
{8gg
8gg
8gg
16dd
16ff
8gg
16dd
16ff
16gg
16ff
8cc
=1
1gg
=2
16dd
16ff
16dd
16cc
2.g
=3
16dd
16ff
16dd
16cc
2.gg}
=4
{8.cc
16dd
8gg
16gg
16ff
16dd
16ff
16dd
16cc
16b-
16cc
16b-
16cc
=5
8dd
16b-
16cc
2.g}
=6
{8gg
8gg
8gg
16dd
16ff
16gg
16ff
16dd
16cc
16gg
16ff
8cc
=7
1gg
=8
16dd
16ff
16dd
16cc
2.g}
=9
{8.cc
16dd
8gg
16gg
16ff
16dd
16ff
16dd
16cc
16b-
16cc
16b-
16cc
=10
8dd
16b-
16cc
2.g}
==
!!!AGN: Shange
!!!AMT: simple quadruple
!!!AIN: vox
!!!EED: Helmut Schaffrath
!!!EEV: 1.0
*-
